austria/municipalities/32209.svg

<?xml version="1.0" encoding="UTF-8"?>
<!DOCTYPE svg PUBLIC "-//W3C//DTD SVG 1.1//EN" "http://www.w3.org/Graphics/SVG/1.1/DTD/svg11.dtd">
<svg xmlns="http://www.w3.org/2000/svg" version="1.1" width="120px" height="152px" style="shape-rendering:geometricPrecision; text-rendering:geometricPrecision; image-rendering:optimizeQuality; fill-rule:evenodd; clip-rule:evenodd" xmlns:xlink="http://www.w3.org/1999/xlink">
<g><path style="opacity:1" fill="#4c4c4c" d="M -0.5,-0.5 C 39.5,-0.5 79.5,-0.5 119.5,-0.5C 119.5,32.5 119.5,65.5 119.5,98.5C 119.167,98.5 118.833,98.5 118.5,98.5C 118.827,89.3178 118.493,80.3178 117.5,71.5C 117.5,48.1667 117.5,24.8333 117.5,1.5C 98.8333,1.5 80.1667,1.5 61.5,1.5C 61.5,50.8333 61.5,100.167 61.5,149.5C 60.5011,100.003 60.1678,50.3361 60.5,0.5C 40.5,0.5 20.5,0.5 0.5,0.5C 0.5,32.8333 0.5,65.1667 0.5,97.5C 0.166667,97.5 -0.166667,97.5 -0.5,97.5C -0.5,64.8333 -0.5,32.1667 -0.5,-0.5 Z"/></g>
<g><path style="opacity:1" fill="#020202" d="M 61.5,149.5 C 58.7131,150.477 55.7131,150.81 52.5,150.5C 22.4231,145.422 5.08973,127.756 0.5,97.5C 0.5,65.1667 0.5,32.8333 0.5,0.5C 20.5,0.5 40.5,0.5 60.5,0.5C 60.1678,50.3361 60.5011,100.003 61.5,149.5 Z"/></g>
<g><path style="opacity:1" fill="#fcfcfc" d="M 117.5,71.5 C 114.286,66.1071 110.452,61.1071 106,56.5C 104.25,53.7536 103.25,50.7536 103,47.5C 101.301,46.5939 99.4672,46.2606 97.5,46.5C 96.8333,46.8333 96.1667,47.1667 95.5,47.5C 88.2525,47.1238 82.5858,49.9571 78.5,56C 75.3785,57.6446 72.2118,59.1446 69,60.5C 68.7351,62.1626 69.2351,63.6626 70.5,65C 74.9558,64.8982 78.9558,65.7316 82.5,67.5C 80.8333,67.5 79.1667,67.5 77.5,67.5C 75.0625,67.9398 72.3959,67.9398 69.5,67.5C 68.2888,68.2739 68.2888,69.1072 69.5,70C 70.7932,70.49 72.1266,70.6567 73.5,70.5C 73.8039,71.1499 74.1373,71.8165 74.5,72.5C 78.1751,73.0564 81.6751,74.0564 85,75.5C 85.2753,78.0583 84.7753,80.3916 83.5,82.5C 79.6905,78.9132 75.0239,77.7466 69.5,79C 65.9518,81.5907 64.6185,85.0907 65.5,89.5C 65.9623,90.8799 66.9623,91.5466 68.5,91.5C 71.3736,90.8779 74.0403,89.8779 76.5,88.5C 77.1667,88.5 77.8333,88.5 78.5,88.5C 78.5,89.1667 78.5,89.8333 78.5,90.5C 72.4922,93.1719 69.4922,97.8386 69.5,104.5C 68.218,105.708 68.218,107.042 69.5,108.5C 70.086,108.291 70.586,107.957 71,107.5C 72.5295,108.583 74.0295,109.583 75.5,110.5C 76.4519,108.955 76.7852,107.288 76.5,105.5C 76.8333,104.5 77.5,103.833 78.5,103.5C 78.5,105.167 78.5,106.833 78.5,108.5C 78.1667,109.833 77.8333,111.167 77.5,112.5C 76.9569,112.56 76.6236,112.893 76.5,113.5C 77.6099,115.2 78.9432,116.534 80.5,117.5C 80.073,120.788 80.7397,123.788 82.5,126.5C 82.1096,130.541 80.7763,134.207 78.5,137.5C 79.7828,140.635 79.7828,143.635 78.5,146.5C 73.0222,148.395 67.3555,149.395 61.5,149.5C 61.5,100.167 61.5,50.8333 61.5,1.5C 80.1667,1.5 98.8333,1.5 117.5,1.5C 117.5,24.8333 117.5,48.1667 117.5,71.5 Z"/></g>
<g><path style="opacity:1" fill="#f5f5f5" d="M 34.5,62.5 C 33.5655,63.5676 33.2322,64.901 33.5,66.5C 31.5,66.5 29.5,66.5 27.5,66.5C 27.5,64.8333 27.5,63.1667 27.5,61.5C 24.5683,61.7157 21.9017,61.049 19.5,59.5C 15.7872,62.4903 13.1205,61.6569 11.5,57C 12.1667,55.6667 12.8333,54.3333 13.5,53C 12.1287,50.6813 11.4621,48.1813 11.5,45.5C 9.5,45.5 7.5,45.5 5.5,45.5C 5.5,43.1667 5.5,40.8333 5.5,38.5C 7.5,38.5 9.5,38.5 11.5,38.5C 11.5713,35.6887 12.238,33.022 13.5,30.5C 10.6426,27.0578 11.3092,24.3911 15.5,22.5C 16.6113,23.6113 17.9446,24.278 19.5,24.5C 22.022,23.238 24.6887,22.5713 27.5,22.5C 27.5,20.5 27.5,18.5 27.5,16.5C 29.8333,16.5 32.1667,16.5 34.5,16.5C 34.5,18.5 34.5,20.5 34.5,22.5C 37.1813,22.4621 39.6813,23.1287 42,24.5C 45.5971,21.5273 48.4304,22.194 50.5,26.5C 49.5,27.8333 48.5,29.1667 47.5,30.5C 49.1938,32.5543 50.3605,34.8877 51,37.5C 52.3561,38.3802 53.8561,38.7135 55.5,38.5C 55.5,40.8333 55.5,43.1667 55.5,45.5C 53.8333,45.5 52.1667,45.5 50.5,45.5C 50.2866,48.475 49.2866,51.1416 47.5,53.5C 51.6425,56.9126 51.1425,59.5793 46,61.5C 44.9079,60.7039 43.7412,60.0372 42.5,59.5C 39.7237,60.5148 37.0571,61.5148 34.5,62.5 Z"/></g>
<g><path style="opacity:1" fill="#0a0a0a" d="M 34.5,28.5 C 39.0627,30.0593 42.3961,33.0593 44.5,37.5C 41.2317,38.487 37.8984,38.8204 34.5,38.5C 34.5,35.1667 34.5,31.8333 34.5,28.5 Z"/></g>
<g><path style="opacity:1" fill="#141414" d="M 24.5,28.5 C 25.5,28.5 26.5,28.5 27.5,28.5C 27.5,31.8333 27.5,35.1667 27.5,38.5C 24.1667,38.5 20.8333,38.5 17.5,38.5C 18.3562,34.1171 20.6896,30.7837 24.5,28.5 Z"/></g>
<g><path style="opacity:1" fill="#141414" d="M 17.5,45.5 C 20.8333,45.5 24.1667,45.5 27.5,45.5C 27.5,48.8333 27.5,52.1667 27.5,55.5C 21.8702,54.537 18.5369,51.2036 17.5,45.5 Z"/></g>
<g><path style="opacity:1" fill="#0c0c0c" d="M 34.5,45.5 C 37.8984,45.1796 41.2317,45.513 44.5,46.5C 42.5,50.5 39.5,53.5 35.5,55.5C 34.513,52.2317 34.1796,48.8984 34.5,45.5 Z"/></g>
<g><path style="opacity:1" fill="#050505" d="M 97.5,46.5 C 99.4672,46.2606 101.301,46.5939 103,47.5C 103.25,50.7536 104.25,53.7536 106,56.5C 110.452,61.1071 114.286,66.1071 117.5,71.5C 118.493,80.3178 118.827,89.3178 118.5,98.5C 114.831,122.893 101.498,139.226 78.5,147.5C 78.5,147.167 78.5,146.833 78.5,146.5C 79.7828,143.635 79.7828,140.635 78.5,137.5C 80.7763,134.207 82.1096,130.541 82.5,126.5C 80.7397,123.788 80.073,120.788 80.5,117.5C 79.9525,115.515 78.9525,113.849 77.5,112.5C 77.8333,111.167 78.1667,109.833 78.5,108.5C 79.4067,106.343 80.0733,104.01 80.5,101.5C 79.5,101.833 78.8333,102.5 78.5,103.5C 77.5,103.833 76.8333,104.5 76.5,105.5C 74.1944,105.007 71.861,104.674 69.5,104.5C 69.4922,97.8386 72.4922,93.1719 78.5,90.5C 84.2725,89.9821 89.2725,87.8154 93.5,84C 90.7507,84.9447 87.9173,86.1113 85,87.5C 84.5,87.1667 84,86.8333 83.5,86.5C 84.8069,85.135 84.8069,83.8016 83.5,82.5C 84.7753,80.3916 85.2753,78.0583 85,75.5C 81.6751,74.0564 78.1751,73.0564 74.5,72.5C 74.1373,71.8165 73.8039,71.1499 73.5,70.5C 75.099,70.7678 76.4324,70.4345 77.5,69.5C 79.6547,69.628 81.6547,69.128 83.5,68C 83.2716,67.6012 82.9382,67.4346 82.5,67.5C 78.9558,65.7316 74.9558,64.8982 70.5,65C 69.2351,63.6626 68.7351,62.1626 69,60.5C 72.2118,59.1446 75.3785,57.6446 78.5,56C 82.5858,49.9571 88.2525,47.1238 95.5,47.5C 95.6077,52.1366 96.6077,52.47 98.5,48.5C 98.1373,47.8165 97.8039,47.1499 97.5,46.5 Z"/></g>
<g><path style="opacity:1" fill="#6d6d6d" d="M 97.5,46.5 C 97.8039,47.1499 98.1373,47.8165 98.5,48.5C 96.6077,52.47 95.6077,52.1366 95.5,47.5C 96.1667,47.1667 96.8333,46.8333 97.5,46.5 Z"/></g>
<g><path style="opacity:1" fill="#878787" d="M 34.5,62.5 C 34.5,64.1667 34.5,65.8333 34.5,67.5C 31.9407,67.8016 29.6074,67.4682 27.5,66.5C 29.5,66.5 31.5,66.5 33.5,66.5C 33.2322,64.901 33.5655,63.5676 34.5,62.5 Z"/></g>
<g><path style="opacity:1" fill="#a00708" d="M 77.5,67.5 C 79.1667,67.5 80.8333,67.5 82.5,67.5C 82.9382,67.4346 83.2716,67.6012 83.5,68C 81.6547,69.128 79.6547,69.628 77.5,69.5C 77.5,68.8333 77.5,68.1667 77.5,67.5 Z"/></g>
<g><path style="opacity:1" fill="#6f3b39" d="M 77.5,67.5 C 77.5,68.1667 77.5,68.8333 77.5,69.5C 76.4324,70.4345 75.099,70.7678 73.5,70.5C 72.1266,70.6567 70.7932,70.49 69.5,70C 68.2888,69.1072 68.2888,68.2739 69.5,67.5C 72.3959,67.9398 75.0625,67.9398 77.5,67.5 Z"/></g>
<g><path style="opacity:1" fill="#0e0e0e" d="M 83.5,82.5 C 82.086,84.0439 81.7526,85.7106 82.5,87.5C 81.3112,88.4287 79.9778,88.762 78.5,88.5C 77.8333,88.5 77.1667,88.5 76.5,88.5C 75.5039,87.3349 74.1705,86.6682 72.5,86.5C 70.2272,88.4944 67.8939,89.4944 65.5,89.5C 64.6185,85.0907 65.9518,81.5907 69.5,79C 75.0239,77.7466 79.6905,78.9132 83.5,82.5 Z"/></g>
<g><path style="opacity:1" fill="#808080" d="M 76.5,88.5 C 74.0403,89.8779 71.3736,90.8779 68.5,91.5C 66.9623,91.5466 65.9623,90.8799 65.5,89.5C 67.8939,89.4944 70.2272,88.4944 72.5,86.5C 74.1705,86.6682 75.5039,87.3349 76.5,88.5 Z"/></g>
<g><path style="opacity:1" fill="#929292" d="M 83.5,82.5 C 84.8069,83.8016 84.8069,85.135 83.5,86.5C 84,86.8333 84.5,87.1667 85,87.5C 87.9173,86.1113 90.7507,84.9447 93.5,84C 89.2725,87.8154 84.2725,89.9821 78.5,90.5C 78.5,89.8333 78.5,89.1667 78.5,88.5C 79.9778,88.762 81.3112,88.4287 82.5,87.5C 81.7526,85.7106 82.086,84.0439 83.5,82.5 Z"/></g>
<g><path style="opacity:1" fill="#959595" d="M 80.5,101.5 C 80.4142,100.504 80.7476,99.6708 81.5,99C 87.78,97.6904 93.78,96.0238 99.5,94C 98.4495,95.3848 97.1161,96.3848 95.5,97C 90.2033,97.8176 85.2033,99.3176 80.5,101.5 Z"/></g>
<g><path style="opacity:1" fill="#fafafa" d="M -0.5,97.5 C -0.166667,97.5 0.166667,97.5 0.5,97.5C 5.08973,127.756 22.4231,145.422 52.5,150.5C 52.5,150.833 52.5,151.167 52.5,151.5C 34.8333,151.5 17.1667,151.5 -0.5,151.5C -0.5,133.5 -0.5,115.5 -0.5,97.5 Z"/></g>
<g><path style="opacity:1" fill="#f9f9f9" d="M 118.5,98.5 C 118.833,98.5 119.167,98.5 119.5,98.5C 119.5,116.167 119.5,133.833 119.5,151.5C 101.833,151.5 84.1667,151.5 66.5,151.5C 70.6268,150.542 74.6268,149.208 78.5,147.5C 101.498,139.226 114.831,122.893 118.5,98.5 Z"/></g>
<g><path style="opacity:1" fill="#7d7d7d" d="M 80.5,101.5 C 80.0733,104.01 79.4067,106.343 78.5,108.5C 78.5,106.833 78.5,105.167 78.5,103.5C 78.8333,102.5 79.5,101.833 80.5,101.5 Z"/></g>
<g><path style="opacity:1" fill="#8c8c8c" d="M 69.5,104.5 C 71.861,104.674 74.1944,105.007 76.5,105.5C 76.7852,107.288 76.4519,108.955 75.5,110.5C 74.0295,109.583 72.5295,108.583 71,107.5C 70.586,107.957 70.086,108.291 69.5,108.5C 68.218,107.042 68.218,105.708 69.5,104.5 Z"/></g>
<g><path style="opacity:1" fill="#666666" d="M 77.5,112.5 C 78.9525,113.849 79.9525,115.515 80.5,117.5C 78.9432,116.534 77.6099,115.2 76.5,113.5C 76.6236,112.893 76.9569,112.56 77.5,112.5 Z"/></g>
<g><path style="opacity:1" fill="#464646" d="M 78.5,146.5 C 78.5,146.833 78.5,147.167 78.5,147.5C 74.6268,149.208 70.6268,150.542 66.5,151.5C 61.8333,151.5 57.1667,151.5 52.5,151.5C 52.5,151.167 52.5,150.833 52.5,150.5C 55.7131,150.81 58.7131,150.477 61.5,149.5C 67.3555,149.395 73.0222,148.395 78.5,146.5 Z"/></g>
</svg>

<svg xmlns="http://www.w3.org/2000/svg" width="120" height="152" style="shape-rendering:geometricPrecision;text-rendering:geometricPrecision;image-rendering:optimizeQuality;fill-rule:evenodd;clip-rule:evenodd"><path style="opacity:1" fill="#4c4c4c" d="M-.5-.5h120v99h-1c.327-9.182-.007-18.182-1-27v-70h-56v148a5550.683 5550.683 0 0 1-1-149H.5v97h-1v-98z"/><path style="opacity:1" fill="#020202" d="M61.5 149.5c-2.787.977-5.787 1.31-9 1-30.077-5.078-47.41-22.744-52-53V.5h60c-.332 49.836.001 99.503 1 149z"/><path style="opacity:1" fill="#fcfcfc" d="M117.5 71.5c-3.214-5.393-7.048-10.393-11.5-15a19.243 19.243 0 0 1-3-9c-1.699-.906-3.533-1.24-5.5-1l-2 1c-7.248-.376-12.914 2.457-17 8.5a122.826 122.826 0 0 1-9.5 4.5c-.265 1.663.235 3.163 1.5 4.5 4.456-.102 8.456.732 12 2.5h-5c-2.438.44-5.104.44-8 0-1.211.774-1.211 1.607 0 2.5a8.434 8.434 0 0 0 4 .5c.304.65.637 1.317 1 2a42.05 42.05 0 0 1 10.5 3c.275 2.558-.225 4.892-1.5 7-3.81-3.587-8.476-4.753-14-3.5-3.548 2.59-4.882 6.09-4 10.5.462 1.38 1.462 2.047 3 2 2.874-.622 5.54-1.622 8-3h2v2c-6.008 2.672-9.008 7.339-9 14-1.282 1.208-1.282 2.542 0 4a3.647 3.647 0 0 0 1.5-1 92.495 92.495 0 0 0 4.5 3c.952-1.545 1.285-3.212 1-5 .333-1 1-1.667 2-2v5l-1 4c-.543.06-.876.393-1 1 1.11 1.7 2.443 3.034 4 4-.427 3.288.24 6.288 2 9-.39 4.041-1.724 7.707-4 11 1.283 3.135 1.283 6.135 0 9a54.67 54.67 0 0 1-17 3V1.5h56v70z"/><path style="opacity:1" fill="#f5f5f5" d="M34.5 62.5c-.934 1.068-1.268 2.401-1 4h-6v-5c-2.932.216-5.598-.451-8-2-3.713 2.99-6.38 2.157-8-2.5l2-4a14.075 14.075 0 0 1-2-7.5h-6v-7h6a18.728 18.728 0 0 1 2-8c-2.857-3.442-2.19-6.109 2-8a6.893 6.893 0 0 0 4 2 18.728 18.728 0 0 1 8-2v-6h7v6a14.075 14.075 0 0 1 7.5 2c3.597-2.973 6.43-2.306 8.5 2l-3 4a17.344 17.344 0 0 1 3.5 7c1.356.88 2.856 1.214 4.5 1v7h-5c-.213 2.975-1.213 5.642-3 8 4.142 3.413 3.642 6.08-1.5 8a18.186 18.186 0 0 0-3.5-2 493.9 493.9 0 0 0-8 3z"/><path style="opacity:1" fill="#0a0a0a" d="M34.5 28.5c4.563 1.56 7.896 4.56 10 9a25.87 25.87 0 0 1-10 1v-10z"/><path style="opacity:1" fill="#141414" d="M24.5 28.5h3v10h-10c.856-4.383 3.19-7.716 7-10zM17.5 45.5h10v10c-5.63-.963-8.963-4.296-10-10z"/><path style="opacity:1" fill="#0c0c0c" d="M34.5 45.5a25.87 25.87 0 0 1 10 1c-2 4-5 7-9 9a25.87 25.87 0 0 1-1-10z"/><path style="opacity:1" fill="#050505" d="M97.5 46.5c1.967-.24 3.801.094 5.5 1a19.243 19.243 0 0 0 3 9c4.452 4.607 8.286 9.607 11.5 15 .993 8.818 1.327 17.818 1 27-3.669 24.393-17.002 40.726-40 49v-1c1.283-2.865 1.283-5.865 0-9 2.276-3.293 3.61-6.959 4-11-1.76-2.712-2.427-5.712-2-9-.547-1.985-1.547-3.651-3-5l1-4c.907-2.157 1.573-4.49 2-7-1 .333-1.667 1-2 2-1 .333-1.667 1-2 2a51.56 51.56 0 0 0-7-1c-.008-6.661 2.992-11.328 9-14 5.772-.518 10.772-2.685 15-6.5-2.75.945-5.583 2.111-8.5 3.5l-1.5-1c1.307-1.365 1.307-2.698 0-4 1.275-2.108 1.775-4.442 1.5-7a42.05 42.05 0 0 0-10.5-3 44.358 44.358 0 0 1-1-2c1.599.268 2.932-.066 4-1a10.1 10.1 0 0 0 6-1.5c-.228-.399-.562-.565-1-.5-3.544-1.768-7.544-2.602-12-2.5-1.265-1.337-1.765-2.837-1.5-4.5a122.826 122.826 0 0 0 9.5-4.5c4.086-6.043 9.752-8.876 17-8.5.108 4.637 1.108 4.97 3 1a44.358 44.358 0 0 1-1-2z"/><path style="opacity:1" fill="#6d6d6d" d="M97.5 46.5c.304.65.637 1.316 1 2-1.892 3.97-2.892 3.637-3-1l2-1z"/><path style="opacity:1" fill="#878787" d="M34.5 62.5v5c-2.56.302-4.893-.032-7-1h6c-.268-1.599.066-2.932 1-4z"/><path style="opacity:1" fill="#a00708" d="M77.5 67.5h5c.438-.065.772.101 1 .5a10.1 10.1 0 0 1-6 1.5v-2z"/><path style="opacity:1" fill="#6f3b39" d="M77.5 67.5v2c-1.068.934-2.401 1.268-4 1a8.434 8.434 0 0 1-4-.5c-1.211-.893-1.211-1.726 0-2.5 2.896.44 5.563.44 8 0z"/><path style="opacity:1" fill="#0e0e0e" d="M83.5 82.5c-1.414 1.544-1.747 3.21-1 5-1.189.929-2.522 1.262-4 1h-2c-.996-1.165-2.33-1.832-4-2-2.273 1.994-4.606 2.994-7 3-.882-4.41.452-7.91 4-10.5 5.524-1.253 10.19-.087 14 3.5z"/><path style="opacity:1" fill="gray" d="M76.5 88.5c-2.46 1.378-5.126 2.378-8 3-1.538.047-2.538-.62-3-2 2.394-.006 4.727-1.006 7-3 1.67.168 3.004.835 4 2z"/><path style="opacity:1" fill="#929292" d="M83.5 82.5c1.307 1.302 1.307 2.635 0 4l1.5 1c2.917-1.389 5.75-2.555 8.5-3.5-4.228 3.815-9.228 5.982-15 6.5v-2c1.478.262 2.811-.071 4-1-.747-1.79-.414-3.456 1-5z"/><path style="opacity:1" fill="#959595" d="M80.5 101.5c-.086-.996.248-1.83 1-2.5 6.28-1.31 12.28-2.976 18-5a8.905 8.905 0 0 1-4 3c-5.297.818-10.297 2.318-15 4.5z"/><path style="opacity:1" fill="#fafafa" d="M-.5 97.5h1c4.59 30.256 21.923 47.922 52 53v1h-53v-54z"/><path style="opacity:1" fill="#f9f9f9" d="M118.5 98.5h1v53h-53a67.513 67.513 0 0 0 12-4c22.998-8.274 36.331-24.607 40-49z"/><path style="opacity:1" fill="#7d7d7d" d="M80.5 101.5c-.427 2.51-1.093 4.843-2 7v-5c.333-1 1-1.667 2-2z"/><path style="opacity:1" fill="#8c8c8c" d="M69.5 104.5a51.56 51.56 0 0 1 7 1c.285 1.788-.048 3.455-1 5a92.495 92.495 0 0 1-4.5-3 3.647 3.647 0 0 1-1.5 1c-1.282-1.458-1.282-2.792 0-4z"/><path style="opacity:1" fill="#666" d="M77.5 112.5c1.453 1.349 2.453 3.015 3 5-1.557-.966-2.89-2.3-4-4 .124-.607.457-.94 1-1z"/><path style="opacity:1" fill="#464646" d="M78.5 146.5v1a67.513 67.513 0 0 1-12 4h-14v-1c3.213.31 6.213-.023 9-1a54.67 54.67 0 0 0 17-3z"/></svg>
